X: 42766
T: White Petticoat, The
R: jig
M: 6/8
K: Eminor
|:Bed cBA|GFE B,EG|F2B cBB|eBB cBA|
Bed cBA|GFE B,EG|F2B cBA|1 GED E2A:|2 GED E2g||
|:gec Gce|gaf gec|cBA EAc|Be^d e2G|
F2B G2B|F2A GFE|B,EG cBA|1 GED E2f:|2 GED E2A||

